X:1
T:Title
%%score { ( 1 3 ) | ( 2 4 ) }
L:1/8
M:6/8
K:Ab
V:1 treble nm="Grand Piano"
V:3 treble 
V:2 bass 
V:4 bass 
V:1
 z3 z2[Q:1/4=100] [CE] | [CE]2 [CE] F2 G | A2 B c2 [Fd] | [Ec]3 [DB]3 | [CA]3- [CA]2 [CE] | %5
 [CE]2 [CE] F2 G | A2 B c2 [Fd] | [Ec]3 [DB]3 |[M:5/8] [CA]-[CA]- [CA]3 |[M:1/8] E |[M:3/4] c6 | %11
[M:5/8] c-c- c3 |[M:1/8] E |[M:3/4] c2 AC EA | G6 | d6 | d6 | BE FG AB | c6 | c6 | c6 | AA AA Bc | %22
 [Fd]6 | F2 [FA] [EG]2 F |[M:7/8] E2 c e3 e |[M:3/4] [Ge]3 [EG]3 |[M:5/8] [CEA]-[CEA]- [CEA]3 |] %27
V:2
 z3 z2 [A,,A,] | [A,,A,]2 [A,,A,] [E,B,D]2 [E,B,D] | [F,A,C]2 [E,G,E] [A,E]2 [D,A,] | %3
 [E,A,]3 [E,G,]3 | [A,,A,]3- [A,,A,]2 [A,,A,] | [A,,A,]2 [A,,A,] [E,B,D]2 [E,B,D] | %6
 [F,A,C]2 [E,G,E] [A,E]2 [D,A,] | [E,A,]3 [E,G,]3 |[M:5/8] [A,,A,]-[A,,A,]- [A,,A,]3 |[M:1/8] z | %10
[M:3/4] z2 [A,C] .[A,C]3 |[M:5/8] z2 [A,C] [A,C]2 |[M:1/8] [A,C] | %13
[M:3/4] [A,E]2 [A,CE]A, [A,C][A,C] | [E,B,]2 z2 z2 | z2 [E,E] .[E,E]3 | z2 [E,E] [E,E]2 [E,A,E] | %17
 [E,G,E][E,G,] [E,A,=D][E,B,_D] [E,A,C][E,G,E] | E6 | z2 [A,C] .[A,C]3 | %20
 z2[K:treble] [A,C] [A,C]2 [A,DE] | [A,CE][A,CE] [A,CE][A,C] [A,DG][A,E_G] | %22
 [D,D]2 D, D,2 [D,A,D] | [D,A,D]2 [D,A,] [D,A,]2 [D,A,D] | %24
[M:7/8][K:treble] [A,C]2 [A,E] [A,CA]3 [A,CA] |[M:3/4][K:bass] [E,B,]3 [E,D]3 | %26
[M:5/8] [A,,A,]-[A,,A,]- [A,,A,]3 |] %27
V:3
 x6 | x6 | x6 | x6 | x6 | x6 | x6 | x6 |[M:5/8] x5 |[M:1/8] x |[M:3/4] z2 E E2 E |[M:5/8] z2 E E2 | %12
[M:1/8] x |[M:3/4] x6 | z2 B,B, z E | z2 G G2 E | z2 G G2 c | x6 | z2 A, A,2 E | z2 E E2 E | %20
 z2 E E2 B | x6 | z2 A, A,2 F | x6 |[M:7/8] x7 |[M:3/4] x6 |[M:5/8] x5 |] %27
V:4
 x6 | x6 | x6 | x6 | x6 | x6 | x6 | x6 |[M:5/8] x5 |[M:1/8] x |[M:3/4] x6 |[M:5/8] x5 |[M:1/8] x | %13
[M:3/4] x6 | D2- [E,D-][E,D-] D2 | x6 | x6 | x6 | A,2 z2 z2 | x6 | x2[K:treble] x4 | x6 | x6 | x6 | %24
[M:7/8][K:treble] x7 |[M:3/4][K:bass] x6 |[M:5/8] x5 |] %27

